svg/color/bfi.svg

<?xml version="1.0" encoding="UTF-8" ?>
<!DOCTYPE svg PUBLIC "-//W3C//DTD SVG 1.1//EN" "http://www.w3.org/Graphics/SVG/1.1/DTD/svg11.dtd">
<svg width="250pt" height="250pt" viewBox="0 0 250 250" version="1.1" xmlns="http://www.w3.org/2000/svg">
<g id="#ffffffff">
<path fill="#ffffff" opacity="1.00" d=" M 0.00 0.00 L 250.00 0.00 L 250.00 250.00 L 0.00 250.00 L 0.00 0.00 M 120.70 6.07 C 92.11 6.81 64.03 18.65 43.34 38.34 C 24.86 55.60 12.18 78.94 7.79 103.84 C 3.45 128.01 6.69 153.53 17.21 175.75 C 28.59 199.88 48.30 220.02 72.24 231.79 C 91.58 241.39 113.57 245.50 135.07 243.65 C 162.11 241.48 188.30 229.64 207.69 210.64 C 228.63 190.74 241.70 162.84 243.73 134.04 C 245.49 111.33 240.62 88.12 229.66 68.14 C 222.13 54.07 211.48 41.78 199.10 31.77 C 177.17 14.16 148.80 4.82 120.70 6.07 Z" />
</g>
<g id="#1c1c1cff">
<path fill="#1c1c1c" opacity="1.00" d=" M 120.70 6.07 C 148.80 4.82 177.17 14.16 199.10 31.77 C 211.48 41.78 222.13 54.07 229.66 68.14 C 240.62 88.12 245.49 111.33 243.73 134.04 C 241.70 162.84 228.63 190.74 207.69 210.64 C 188.30 229.64 162.11 241.48 135.07 243.65 C 113.57 245.50 91.58 241.39 72.24 231.79 C 48.30 220.02 28.59 199.88 17.21 175.75 C 6.69 153.53 3.45 128.01 7.79 103.84 C 12.18 78.94 24.86 55.60 43.34 38.34 C 64.03 18.65 92.11 6.81 120.70 6.07 M 119.12 20.04 C 118.95 24.45 123.77 26.44 127.51 25.52 C 131.10 23.43 132.28 17.91 128.89 15.12 C 125.27 11.64 118.28 14.88 119.12 20.04 M 83.19 27.02 C 83.38 32.11 90.97 33.69 93.70 29.76 C 95.41 27.84 94.71 25.15 94.42 22.87 C 92.83 21.58 91.26 19.79 88.97 20.19 C 85.38 19.84 82.42 23.60 83.19 27.02 M 155.86 29.18 C 157.78 32.61 163.41 32.96 165.69 29.77 C 167.45 27.87 166.69 25.14 166.44 22.86 C 164.84 21.59 163.26 19.82 160.99 20.19 C 156.43 19.77 153.59 25.49 155.86 29.18 M 112.18 34.30 C 95.02 36.69 78.59 44.12 65.46 55.42 C 51.66 67.19 41.45 83.14 36.68 100.65 C 31.46 119.46 32.44 139.99 39.60 158.17 C 46.64 176.44 59.74 192.35 76.40 202.66 C 91.10 211.99 108.59 216.85 125.99 216.57 C 147.07 216.56 167.98 208.66 184.04 195.05 C 198.59 182.91 209.06 166.05 213.77 147.71 C 218.52 129.00 217.24 108.78 210.01 90.87 C 202.72 72.57 189.29 56.82 172.43 46.65 C 154.59 35.71 132.89 31.39 112.18 34.30 M 55.46 38.62 C 50.90 39.78 49.89 46.72 53.85 49.22 C 57.13 51.99 62.62 49.51 63.27 45.42 C 64.23 41.17 59.57 37.14 55.46 38.62 M 190.51 38.70 C 186.24 40.19 185.18 46.40 188.96 49.03 C 192.60 52.45 199.20 48.95 198.61 44.07 C 198.81 39.97 194.13 37.34 190.51 38.70 M 30.42 67.47 C 26.90 69.67 26.89 75.32 30.56 77.34 C 34.33 80.12 40.43 76.82 39.77 72.06 C 40.06 67.49 33.83 64.53 30.42 67.47 M 210.30 71.91 C 209.41 76.76 215.84 80.31 219.60 77.29 C 222.53 75.47 222.65 71.72 221.37 68.86 C 219.33 66.72 216.63 66.08 213.75 66.43 C 212.13 67.92 209.93 69.37 210.30 71.91 M 20.54 100.72 C 16.89 101.17 14.40 105.10 15.65 108.60 C 16.76 113.49 24.42 114.04 26.58 109.64 C 29.33 105.67 25.11 99.88 20.54 100.72 M 224.76 101.75 C 223.13 103.94 221.65 106.97 223.38 109.54 C 225.18 113.23 230.89 113.71 233.39 110.54 C 234.88 108.84 234.43 106.50 234.54 104.44 C 233.19 103.10 232.06 101.31 230.12 100.78 C 228.27 100.25 226.49 101.27 224.76 101.75 M 18.65 137.78 C 14.46 139.63 14.20 146.51 18.44 148.46 C 22.59 151.35 28.60 146.61 27.26 141.89 C 26.42 138.17 22.07 136.28 18.65 137.78 M 226.58 137.60 C 223.05 138.72 221.52 143.33 223.58 146.38 C 225.65 150.40 232.02 150.07 233.98 146.10 C 236.64 141.50 231.62 135.49 226.58 137.60 M 32.51 171.71 C 29.07 172.48 26.58 176.62 28.29 179.91 C 29.90 184.29 36.52 184.92 38.92 180.92 C 41.80 176.66 37.60 170.34 32.51 171.71 M 214.09 171.95 C 209.37 173.33 208.80 180.79 213.22 182.84 C 216.51 184.93 221.13 182.76 222.01 179.07 C 223.39 174.66 218.34 170.12 214.09 171.95 M 54.30 200.41 C 50.48 202.48 50.26 208.80 54.25 210.82 C 58.17 213.40 63.90 209.71 63.38 205.11 C 63.05 200.90 57.96 198.11 54.30 200.41 M 187.88 209.09 C 189.92 212.43 194.22 211.87 197.15 210.14 C 199.51 206.87 199.10 201.62 194.94 200.05 C 189.77 197.46 183.88 204.73 187.88 209.09 M 85.76 218.61 C 82.69 220.97 81.98 226.33 85.45 228.67 C 88.97 231.58 95.32 228.79 94.82 223.98 C 95.30 220.59 92.18 218.28 89.20 217.72 C 88.06 218.03 86.91 218.32 85.76 218.61 M 157.65 218.64 C 154.74 221.00 154.00 226.29 157.35 228.58 C 160.79 231.63 167.36 228.82 166.82 224.00 C 167.37 220.55 164.17 218.31 161.19 217.71 C 160.01 218.03 158.83 218.34 157.65 218.64 M 121.44 225.46 C 118.11 227.67 118.79 232.38 120.92 235.20 C 124.58 237.35 130.67 236.02 130.83 231.10 C 131.98 226.04 125.30 222.12 121.44 225.46 Z" />
<path fill="#1c1c1c" opacity="1.00" d=" M 109.37 38.63 C 126.19 35.75 143.92 37.51 159.61 44.38 C 179.32 52.75 195.68 68.69 204.61 88.15 C 211.82 103.43 214.08 120.81 211.85 137.50 C 208.79 158.93 197.45 179.04 180.73 192.77 C 165.39 205.23 145.85 212.68 126.01 212.61 C 106.72 213.06 87.39 206.60 72.09 194.89 C 54.73 181.95 42.63 162.25 38.76 140.97 C 35.87 125.03 37.33 108.29 43.24 93.19 C 53.88 65.16 79.84 43.78 109.37 38.63 M 80.13 66.40 C 80.19 77.42 80.18 88.44 80.14 99.46 C 93.19 99.47 106.25 99.53 119.31 99.42 C 119.38 95.81 118.81 92.09 119.73 88.56 C 121.38 85.72 124.85 84.60 127.98 84.63 C 132.24 84.61 137.23 85.24 139.95 88.94 C 142.94 93.54 142.75 99.55 141.05 104.59 C 139.31 108.93 134.51 110.90 130.09 110.78 C 113.45 110.86 96.81 110.74 80.16 110.77 C 80.09 130.11 80.44 149.46 80.04 168.80 C 78.73 168.71 77.42 168.63 76.11 168.55 C 75.77 171.83 75.41 175.20 76.30 178.43 C 90.64 178.20 104.99 178.47 119.33 178.30 C 119.23 164.54 119.31 150.78 119.23 137.02 C 119.26 134.64 119.01 131.73 121.23 130.17 C 123.82 127.64 127.69 128.18 131.00 128.11 C 135.47 128.04 140.51 128.79 143.50 132.48 C 147.36 137.74 147.22 145.06 144.85 150.90 C 142.88 155.41 138.21 158.28 133.28 157.78 C 133.15 164.66 133.15 171.54 133.29 178.42 C 139.14 178.36 144.98 177.83 150.79 177.12 C 158.71 176.06 166.18 172.33 172.01 166.90 C 175.90 163.24 178.94 158.45 179.53 153.05 C 180.22 146.07 180.27 138.60 176.78 132.29 C 173.42 125.11 165.91 121.18 158.66 118.95 C 159.80 117.92 161.12 117.14 162.47 116.44 C 168.38 113.44 172.64 107.59 174.21 101.22 C 175.95 92.51 174.59 82.54 168.13 75.99 C 162.25 69.08 152.86 66.44 144.07 66.38 C 122.75 66.39 101.44 66.36 80.13 66.40 Z" />
</g>
<g id="#fcc501ff">
<path fill="#fcc501" opacity="1.00" d=" M 119.12 20.04 C 118.28 14.88 125.27 11.64 128.89 15.12 C 132.28 17.91 131.10 23.43 127.51 25.52 C 123.77 26.44 118.95 24.45 119.12 20.04 Z" />
<path fill="#fcc501" opacity="1.00" d=" M 83.19 27.02 C 82.42 23.60 85.38 19.84 88.97 20.19 C 91.26 19.79 92.83 21.58 94.42 22.87 C 94.71 25.15 95.41 27.84 93.70 29.76 C 90.97 33.69 83.38 32.11 83.19 27.02 Z" />
<path fill="#fcc501" opacity="1.00" d=" M 155.86 29.18 C 153.59 25.49 156.43 19.77 160.99 20.19 C 163.26 19.82 164.84 21.59 166.44 22.86 C 166.69 25.14 167.45 27.87 165.69 29.77 C 163.41 32.96 157.78 32.61 155.86 29.18 Z" />
<path fill="#fcc501" opacity="1.00" d=" M 112.18 34.30 C 132.89 31.39 154.59 35.71 172.43 46.65 C 189.29 56.82 202.72 72.57 210.01 90.87 C 217.24 108.78 218.52 129.00 213.77 147.71 C 209.06 166.05 198.59 182.91 184.04 195.05 C 167.98 208.66 147.07 216.56 125.99 216.57 C 108.59 216.85 91.10 211.99 76.40 202.66 C 59.74 192.35 46.64 176.44 39.60 158.17 C 32.44 139.99 31.46 119.46 36.68 100.65 C 41.45 83.14 51.66 67.19 65.46 55.42 C 78.59 44.12 95.02 36.69 112.18 34.30 M 109.37 38.63 C 79.84 43.78 53.88 65.16 43.24 93.19 C 37.33 108.29 35.87 125.03 38.76 140.97 C 42.63 162.25 54.73 181.95 72.09 194.89 C 87.39 206.60 106.72 213.06 126.01 212.61 C 145.85 212.68 165.39 205.23 180.73 192.77 C 197.45 179.04 208.79 158.93 211.85 137.50 C 214.08 120.81 211.82 103.43 204.61 88.15 C 195.68 68.69 179.32 52.75 159.61 44.38 C 143.92 37.51 126.19 35.75 109.37 38.63 Z" />
<path fill="#fcc501" opacity="1.00" d=" M 55.46 38.62 C 59.57 37.14 64.23 41.17 63.27 45.42 C 62.62 49.51 57.13 51.99 53.85 49.22 C 49.89 46.72 50.90 39.78 55.46 38.62 Z" />
<path fill="#fcc501" opacity="1.00" d=" M 190.51 38.70 C 194.13 37.34 198.81 39.97 198.61 44.07 C 199.20 48.95 192.60 52.45 188.96 49.03 C 185.18 46.40 186.24 40.19 190.51 38.70 Z" />
<path fill="#fcc501" opacity="1.00" d=" M 80.13 66.40 C 101.44 66.36 122.75 66.39 144.07 66.38 C 152.86 66.44 162.25 69.08 168.13 75.99 C 174.59 82.54 175.95 92.51 174.21 101.22 C 172.64 107.59 168.38 113.44 162.47 116.44 C 161.12 117.14 159.80 117.92 158.66 118.95 C 165.91 121.18 173.42 125.11 176.78 132.29 C 180.27 138.60 180.22 146.07 179.53 153.05 C 178.94 158.45 175.90 163.24 172.01 166.90 C 166.18 172.33 158.71 176.06 150.79 177.12 C 144.98 177.83 139.14 178.36 133.29 178.42 C 133.15 171.54 133.15 164.66 133.28 157.78 C 138.21 158.28 142.88 155.41 144.85 150.90 C 147.22 145.06 147.36 137.74 143.50 132.48 C 140.51 128.79 135.47 128.04 131.00 128.11 C 127.69 128.18 123.82 127.64 121.23 130.17 C 119.01 131.73 119.26 134.64 119.23 137.02 C 119.31 150.78 119.23 164.54 119.33 178.30 C 104.99 178.47 90.64 178.20 76.30 178.43 C 75.41 175.20 75.77 171.83 76.11 168.55 C 77.42 168.63 78.73 168.71 80.04 168.80 C 80.44 149.46 80.09 130.11 80.16 110.77 C 96.81 110.74 113.45 110.86 130.09 110.78 C 134.51 110.90 139.31 108.93 141.05 104.59 C 142.75 99.55 142.94 93.54 139.95 88.94 C 137.23 85.24 132.24 84.61 127.98 84.63 C 124.85 84.60 121.38 85.72 119.73 88.56 C 118.81 92.09 119.38 95.81 119.31 99.42 C 106.25 99.53 93.19 99.47 80.14 99.46 C 80.18 88.44 80.19 77.42 80.13 66.40 Z" />
<path fill="#fcc501" opacity="1.00" d=" M 30.42 67.47 C 33.83 64.53 40.06 67.49 39.77 72.06 C 40.43 76.82 34.33 80.12 30.56 77.34 C 26.89 75.32 26.90 69.67 30.42 67.47 Z" />
<path fill="#fcc501" opacity="1.00" d=" M 210.30 71.91 C 209.93 69.37 212.13 67.92 213.75 66.43 C 216.63 66.08 219.33 66.72 221.37 68.86 C 222.65 71.72 222.53 75.47 219.60 77.29 C 215.84 80.31 209.41 76.76 210.30 71.91 Z" />
<path fill="#fcc501" opacity="1.00" d=" M 20.54 100.72 C 25.11 99.88 29.33 105.67 26.58 109.64 C 24.42 114.04 16.76 113.49 15.65 108.60 C 14.40 105.10 16.89 101.17 20.54 100.72 Z" />
<path fill="#fcc501" opacity="1.00" d=" M 224.76 101.75 C 226.49 101.27 228.27 100.25 230.12 100.78 C 232.06 101.31 233.19 103.10 234.54 104.44 C 234.43 106.50 234.88 108.84 233.39 110.54 C 230.89 113.71 225.18 113.23 223.38 109.54 C 221.65 106.97 223.13 103.94 224.76 101.75 Z" />
<path fill="#fcc501" opacity="1.00" d=" M 18.65 137.78 C 22.07 136.28 26.42 138.17 27.26 141.89 C 28.60 146.61 22.59 151.35 18.44 148.46 C 14.20 146.51 14.46 139.63 18.65 137.78 Z" />
<path fill="#fcc501" opacity="1.00" d=" M 226.58 137.60 C 231.62 135.49 236.64 141.50 233.98 146.10 C 232.02 150.07 225.65 150.40 223.58 146.38 C 221.52 143.33 223.05 138.72 226.58 137.60 Z" />
<path fill="#fcc501" opacity="1.00" d=" M 32.51 171.71 C 37.60 170.34 41.80 176.66 38.92 180.92 C 36.52 184.92 29.90 184.29 28.29 179.91 C 26.58 176.62 29.07 172.48 32.51 171.71 Z" />
<path fill="#fcc501" opacity="1.00" d=" M 214.09 171.95 C 218.34 170.12 223.39 174.66 222.01 179.07 C 221.13 182.76 216.51 184.93 213.22 182.84 C 208.80 180.79 209.37 173.33 214.09 171.95 Z" />
<path fill="#fcc501" opacity="1.00" d=" M 54.30 200.41 C 57.96 198.11 63.05 200.90 63.38 205.11 C 63.90 209.71 58.17 213.40 54.25 210.82 C 50.26 208.80 50.48 202.48 54.30 200.41 Z" />
<path fill="#fcc501" opacity="1.00" d=" M 187.88 209.09 C 183.88 204.73 189.77 197.46 194.94 200.05 C 199.10 201.62 199.51 206.87 197.15 210.14 C 194.22 211.87 189.92 212.43 187.88 209.09 Z" />
<path fill="#fcc501" opacity="1.00" d=" M 85.76 218.61 C 86.91 218.32 88.06 218.03 89.20 217.72 C 92.18 218.28 95.30 220.59 94.82 223.98 C 95.32 228.79 88.97 231.58 85.45 228.67 C 81.98 226.33 82.69 220.97 85.76 218.61 Z" />
<path fill="#fcc501" opacity="1.00" d=" M 157.65 218.64 C 158.83 218.34 160.01 218.03 161.19 217.71 C 164.17 218.31 167.37 220.55 166.82 224.00 C 167.36 228.82 160.79 231.63 157.35 228.58 C 154.00 226.29 154.74 221.00 157.65 218.64 Z" />
<path fill="#fcc501" opacity="1.00" d=" M 121.44 225.46 C 125.30 222.12 131.98 226.04 130.83 231.10 C 130.67 236.02 124.58 237.35 120.92 235.20 C 118.79 232.38 118.11 227.67 121.44 225.46 Z" />
</g>
</svg>

<?xml version="1.0" encoding="utf-8"?>
<!-- Generator: Adobe Illustrator 26.0.3, SVG Export Plug-In . SVG Version: 6.00 Build 0)  -->
<svg version="1.1" id="Layer_1" xmlns="http://www.w3.org/2000/svg" xmlns:xlink="http://www.w3.org/1999/xlink" x="0px" y="0px"
	 viewBox="0 0 250 250" style="enable-background:new 0 0 250 250;" xml:space="preserve">
<style type="text/css">
	.st0{fill:#1C1C1C;}
	.st1{fill:#FCC501;}
</style>
<g id="_x23_1c1c1cff">
	<path class="st0" d="M120.7,6.1c28.1-1.2,56.5,8.1,78.4,25.7c12.4,10,23,22.3,30.6,36.4c11,20,15.8,43.2,14.1,65.9
		c-2,28.8-15.1,56.7-36,76.6c-19.4,19-45.6,30.8-72.6,33c-21.5,1.9-43.5-2.3-62.8-11.9c-23.9-11.8-43.6-31.9-55-56
		C6.7,153.5,3.5,128,7.8,103.8c4.4-24.9,17.1-48.2,35.5-65.5C64,18.6,92.1,6.8,120.7,6.1 M119.1,20c-0.2,4.4,4.6,6.4,8.4,5.5
		c3.6-2.1,4.8-7.6,1.4-10.4C125.3,11.6,118.3,14.9,119.1,20 M83.2,27c0.2,5.1,7.8,6.7,10.5,2.7c1.7-1.9,1-4.6,0.7-6.9
		c-1.6-1.3-3.2-3.1-5.4-2.7C85.4,19.8,82.4,23.6,83.2,27 M155.9,29.2c1.9,3.4,7.6,3.8,9.8,0.6c1.8-1.9,1-4.6,0.8-6.9
		c-1.6-1.3-3.2-3-5.4-2.7C156.4,19.8,153.6,25.5,155.9,29.2 M112.2,34.3C95,36.7,78.6,44.1,65.5,55.4c-13.8,11.8-24,27.7-28.8,45.2
		c-5.2,18.8-4.2,39.3,2.9,57.5c7,18.3,20.1,34.2,36.8,44.5c14.7,9.3,32.2,14.2,49.6,13.9c21.1,0,42-7.9,58-21.5
		c14.6-12.1,25-29,29.7-47.3c4.8-18.7,3.5-38.9-3.8-56.8c-7.3-18.3-20.7-34.1-37.6-44.2C154.6,35.7,132.9,31.4,112.2,34.3
		 M55.5,38.6c-4.6,1.2-5.6,8.1-1.6,10.6c3.3,2.8,8.8,0.3,9.4-3.8C64.2,41.2,59.6,37.1,55.5,38.6 M190.5,38.7
		c-4.3,1.5-5.3,7.7-1.5,10.3c3.6,3.4,10.2-0.1,9.6-5C198.8,40,194.1,37.3,190.5,38.7 M30.4,67.5c-3.5,2.2-3.5,7.8,0.1,9.9
		c3.8,2.8,9.9-0.5,9.2-5.3C40.1,67.5,33.8,64.5,30.4,67.5 M210.3,71.9c-0.9,4.8,5.5,8.4,9.3,5.4c2.9-1.8,3-5.6,1.8-8.4
		c-2-2.1-4.7-2.8-7.6-2.4C212.1,67.9,209.9,69.4,210.3,71.9 M20.5,100.7c-3.7,0.4-6.1,4.4-4.9,7.9c1.1,4.9,8.8,5.4,10.9,1
		C29.3,105.7,25.1,99.9,20.5,100.7 M224.8,101.8c-1.6,2.2-3.1,5.2-1.4,7.8c1.8,3.7,7.5,4.2,10,1c1.5-1.7,1-4,1.1-6.1
		c-1.3-1.3-2.5-3.1-4.4-3.7C228.3,100.2,226.5,101.3,224.8,101.8 M18.6,137.8c-4.2,1.9-4.4,8.7-0.2,10.7c4.1,2.9,10.2-1.9,8.8-6.6
		C26.4,138.2,22.1,136.3,18.6,137.8 M226.6,137.6c-3.5,1.1-5.1,5.7-3,8.8c2.1,4,8.4,3.7,10.4-0.3
		C236.6,141.5,231.6,135.5,226.6,137.6 M32.5,171.7c-3.4,0.8-5.9,4.9-4.2,8.2c1.6,4.4,8.2,5,10.6,1
		C41.8,176.7,37.6,170.3,32.5,171.7 M214.1,171.9c-4.7,1.4-5.3,8.8-0.9,10.9c3.3,2.1,7.9-0.1,8.8-3.8
		C223.4,174.7,218.3,170.1,214.1,171.9 M54.3,200.4c-3.8,2.1-4,8.4,0,10.4c3.9,2.6,9.7-1.1,9.1-5.7C63,200.9,58,198.1,54.3,200.4
		 M187.9,209.1c2,3.3,6.3,2.8,9.3,1.1c2.4-3.3,2-8.5-2.2-10.1C189.8,197.5,183.9,204.7,187.9,209.1 M85.8,218.6
		c-3.1,2.4-3.8,7.7-0.3,10.1c3.5,2.9,9.9,0.1,9.4-4.7c0.5-3.4-2.6-5.7-5.6-6.3C88.1,218,86.9,218.3,85.8,218.6 M157.6,218.6
		c-2.9,2.4-3.6,7.6-0.3,9.9c3.4,3.1,10,0.2,9.5-4.6c0.5-3.4-2.7-5.7-5.6-6.3C160,218,158.8,218.3,157.6,218.6 M121.4,225.5
		c-3.3,2.2-2.7,6.9-0.5,9.7c3.7,2.2,9.8,0.8,9.9-4.1C132,226,125.3,222.1,121.4,225.5z"/>
	<path class="st0" d="M109.4,38.6c16.8-2.9,34.5-1.1,50.2,5.8c19.7,8.4,36.1,24.3,45,43.8c7.2,15.3,9.5,32.7,7.2,49.3
		c-3.1,21.4-14.4,41.5-31.1,55.3c-15.3,12.5-34.9,19.9-54.7,19.8c-19.3,0.4-38.6-6-53.9-17.7c-17.4-12.9-29.5-32.6-33.3-53.9
		c-2.9-15.9-1.4-32.7,4.5-47.8C53.9,65.2,79.8,43.8,109.4,38.6 M80.1,66.4c0.1,11,0.1,22,0,33.1c13.1,0,26.1,0.1,39.2,0
		c0.1-3.6-0.5-7.3,0.4-10.9c1.6-2.8,5.1-4,8.2-3.9c4.3,0,9.2,0.6,12,4.3c3,4.6,2.8,10.6,1.1,15.6c-1.7,4.3-6.5,6.3-11,6.2
		c-16.6,0.1-33.3,0-49.9,0c-0.1,19.3,0.3,38.7-0.1,58c-1.3-0.1-2.6-0.2-3.9-0.2c-0.3,3.3-0.7,6.6,0.2,9.9c14.3-0.2,28.7,0,43-0.1
		c-0.1-13.8,0-27.5-0.1-41.3c0-2.4-0.2-5.3,2-6.9c2.6-2.5,6.5-2,9.8-2.1c4.5-0.1,9.5,0.7,12.5,4.4c3.9,5.3,3.7,12.6,1.4,18.4
		c-2,4.5-6.6,7.4-11.6,6.9c-0.1,6.9-0.1,13.8,0,20.6c5.9-0.1,11.7-0.6,17.5-1.3c7.9-1.1,15.4-4.8,21.2-10.2
		c3.9-3.7,6.9-8.4,7.5-13.8c0.7-7,0.7-14.4-2.8-20.8c-3.4-7.2-10.9-11.1-18.1-13.3c1.1-1,2.5-1.8,3.8-2.5c5.9-3,10.2-8.9,11.7-15.2
		c1.7-8.7,0.4-18.7-6.1-25.2c-5.9-6.9-15.3-9.5-24.1-9.6C122.8,66.4,101.4,66.4,80.1,66.4z"/>
</g>
<g id="_x23_fcc501ff">
	<path class="st1" d="M119.1,20c-0.8-5.2,6.1-8.4,9.8-4.9c3.4,2.8,2.2,8.3-1.4,10.4C123.8,26.4,118.9,24.5,119.1,20z"/>
	<path class="st1" d="M83.2,27c-0.8-3.4,2.2-7.2,5.8-6.8c2.3-0.4,3.9,1.4,5.4,2.7c0.3,2.3,1,5-0.7,6.9C91,33.7,83.4,32.1,83.2,27z"
		/>
	<path class="st1" d="M155.9,29.2c-2.3-3.7,0.6-9.4,5.1-9c2.3-0.4,3.8,1.4,5.4,2.7c0.2,2.3,1,5-0.8,6.9
		C163.4,33,157.8,32.6,155.9,29.2z"/>
	<path class="st1" d="M112.2,34.3c20.7-2.9,42.4,1.4,60.2,12.4c16.9,10.2,30.3,25.9,37.6,44.2c7.2,17.9,8.5,38.1,3.8,56.8
		c-4.7,18.3-15.2,35.2-29.7,47.3c-16.1,13.6-37,21.5-58,21.5c-17.4,0.3-34.9-4.6-49.6-13.9c-16.7-10.3-29.8-26.2-36.8-44.5
		c-7.2-18.2-8.1-38.7-2.9-57.5c4.8-17.5,15-33.5,28.8-45.2C78.6,44.1,95,36.7,112.2,34.3 M109.4,38.6c-29.5,5.1-55.5,26.5-66.1,54.6
		c-5.9,15.1-7.4,31.8-4.5,47.8c3.9,21.3,16,41,33.3,53.9c15.3,11.7,34.6,18.2,53.9,17.7c19.8,0.1,39.4-7.4,54.7-19.8
		c16.7-13.7,28.1-33.8,31.1-55.3c2.2-16.7,0-34.1-7.2-49.3c-8.9-19.5-25.3-35.4-45-43.8C143.9,37.5,126.2,35.8,109.4,38.6z"/>
	<path class="st1" d="M55.5,38.6c4.1-1.5,8.8,2.5,7.8,6.8c-0.7,4.1-6.1,6.6-9.4,3.8C49.9,46.7,50.9,39.8,55.5,38.6z"/>
	<path class="st1" d="M190.5,38.7c3.6-1.4,8.3,1.3,8.1,5.4c0.6,4.9-6,8.4-9.6,5C185.2,46.4,186.2,40.2,190.5,38.7z"/>
	<path class="st1" d="M80.1,66.4c21.3,0,42.6,0,63.9,0c8.8,0.1,18.2,2.7,24.1,9.6c6.5,6.6,7.8,16.5,6.1,25.2
		c-1.6,6.4-5.8,12.2-11.7,15.2c-1.4,0.7-2.7,1.5-3.8,2.5c7.2,2.2,14.8,6.2,18.1,13.3c3.5,6.3,3.4,13.8,2.8,20.8
		c-0.6,5.4-3.6,10.2-7.5,13.8c-5.8,5.4-13.3,9.2-21.2,10.2c-5.8,0.7-11.6,1.2-17.5,1.3c-0.1-6.9-0.1-13.8,0-20.6
		c4.9,0.5,9.6-2.4,11.6-6.9c2.4-5.8,2.5-13.2-1.4-18.4c-3-3.7-8-4.4-12.5-4.4c-3.3,0.1-7.2-0.5-9.8,2.1c-2.2,1.6-2,4.5-2,6.9
		c0.1,13.8,0,27.5,0.1,41.3c-14.3,0.2-28.7-0.1-43,0.1c-0.9-3.2-0.5-6.6-0.2-9.9c1.3,0.1,2.6,0.2,3.9,0.2c0.4-19.3,0-38.7,0.1-58
		c16.6,0,33.3,0.1,49.9,0c4.4,0.1,9.2-1.8,11-6.2c1.7-5,1.9-11-1.1-15.6c-2.7-3.7-7.7-4.3-12-4.3c-3.1,0-6.6,1.1-8.2,3.9
		c-0.9,3.5-0.4,7.2-0.4,10.9c-13.1,0.1-26.1,0.1-39.2,0C80.2,88.4,80.2,77.4,80.1,66.4z"/>
	<path class="st1" d="M30.4,67.5c3.4-2.9,9.6,0,9.4,4.6c0.7,4.8-5.4,8.1-9.2,5.3C26.9,75.3,26.9,69.7,30.4,67.5z"/>
	<path class="st1" d="M210.3,71.9c-0.4-2.5,1.8-4,3.4-5.5c2.9-0.3,5.6,0.3,7.6,2.4c1.3,2.9,1.2,6.6-1.8,8.4
		C215.8,80.3,209.4,76.8,210.3,71.9z"/>
	<path class="st1" d="M20.5,100.7c4.6-0.8,8.8,4.9,6,8.9c-2.2,4.4-9.8,3.8-10.9-1C14.4,105.1,16.9,101.2,20.5,100.7z"/>
	<path class="st1" d="M224.8,101.8c1.7-0.5,3.5-1.5,5.4-1c1.9,0.5,3.1,2.3,4.4,3.7c-0.1,2.1,0.3,4.4-1.1,6.1c-2.5,3.2-8.2,2.7-10-1
		C221.6,107,223.1,103.9,224.8,101.8z"/>
	<path class="st1" d="M18.6,137.8c3.4-1.5,7.8,0.4,8.6,4.1c1.3,4.7-4.7,9.5-8.8,6.6C14.2,146.5,14.5,139.6,18.6,137.8z"/>
	<path class="st1" d="M226.6,137.6c5-2.1,10.1,3.9,7.4,8.5c-2,4-8.3,4.3-10.4,0.3C221.5,143.3,223.1,138.7,226.6,137.6z"/>
	<path class="st1" d="M32.5,171.7c5.1-1.4,9.3,4.9,6.4,9.2c-2.4,4-9,3.4-10.6-1C26.6,176.6,29.1,172.5,32.5,171.7z"/>
	<path class="st1" d="M214.1,171.9c4.2-1.8,9.3,2.7,7.9,7.1c-0.9,3.7-5.5,5.9-8.8,3.8C208.8,180.8,209.4,173.3,214.1,171.9z"/>
	<path class="st1" d="M54.3,200.4c3.7-2.3,8.8,0.5,9.1,4.7c0.5,4.6-5.2,8.3-9.1,5.7C50.3,208.8,50.5,202.5,54.3,200.4z"/>
	<path class="st1" d="M187.9,209.1c-4-4.4,1.9-11.6,7.1-9c4.2,1.6,4.6,6.8,2.2,10.1C194.2,211.9,189.9,212.4,187.9,209.1z"/>
	<path class="st1" d="M85.8,218.6c1.2-0.3,2.3-0.6,3.4-0.9c3,0.6,6.1,2.9,5.6,6.3c0.5,4.8-5.8,7.6-9.4,4.7
		C82,226.3,82.7,221,85.8,218.6z"/>
	<path class="st1" d="M157.6,218.6c1.2-0.3,2.4-0.6,3.5-0.9c3,0.6,6.2,2.8,5.6,6.3c0.5,4.8-6,7.6-9.5,4.6
		C154,226.3,154.7,221,157.6,218.6z"/>
	<path class="st1" d="M121.4,225.5c3.9-3.3,10.5,0.6,9.4,5.6c-0.2,4.9-6.2,6.2-9.9,4.1C118.8,232.4,118.1,227.7,121.4,225.5z"/>
</g>
</svg>
